X: 1789
T: Paddy's Schottische
B: australian traditional tunes wiki
M:4/4
L:1/8
R: Schottische
Q: 1/4=100
K:G
V:1 
"G"(3BdB B2 (3BdB B2|e>d B<G D2D2|(3BdB B>d e>d c>B|"D"A2E2^D2=D2|
"A7"A4"G"B4|"A7"c2E2"D"F2-F>E|"D"D>d c<A"A7" E2F2|1"G"G6A2:|2"G"G6||
|:B,>C|"G"D>E D>E D>B, C>D|"C"E>F E>DE4|"D"A>G (3cAd c2E>F|"G"G>g g<A G2 B,>C|
"G"D>E D>E D>B, C>D|"C"E>F E>DE4|"D"c>B c>A "A7"G>F E>F|"G"G6:|
% abcbook-tune_id 6342d53acc736727e32e0816


% abcbook-boost 0
% abcbook-tablature 
% abcbook-transpose 
% abcbook-lastupdated 1665324383976
% abcbook-soundfonts 
% abcbook-repeats 1
% NFF Book 2007

